X:18025
T:Redowa Polka
R:Polka
C:Trad.
O:England
Z:Paul Hardy's Session Tunebook 2015 (see www.paulhardy.net). Creative Commons cc by-nc-sa licenced.
M:2/2
L:1/8
Q:1/2=90
K:G
|:"G"GBd2 d2d2|dedc B2B2|GAB2 GAB2|B2A2"D"A4|"Am"ABc2 c2c2|cdcB "D"A2A2|FGA2 FGA2|A2G2"G"G4:|
|:"G"GBd2 g2d2|d2c2 "Am"cBc2|FAc2 "D"f2e2|"Am"e2d2 "G"d^cd2|GBd2 g2d2|d2c2 "Am"cBc2|FAc2 "D"f2e2|d2ef "G"g4:|

